X:313
%%etbk:tnset id:96,pos:5,rep:3x,ant:
%%etbk:tnset id:263,pos:2,rep:3x+1A-Stop,ant:
%%etbk:tnset id:513,pos:3,rep:3x,ant:
%%etbk:wsite http://www.thesession.org/tunes/display/71
%%etbk:color #ffffcc
%%etbk:pldat 2016-06-22T16:08,2016-06-20T18:28,2016-06-16T19:07,2016-05-05T15:18,2016-05-04T15:50,2016-05-03T15:39,2016-03-10T18:37,2016-03-08T15:42,2016-03-05T15:32,2016-02-23T17:15,2015-10-28T15:36,2015-10-25T14:01,2015-10-21T16:12,2015-10-13T16:29,2015-10-03T16:35,2015-06-24T19:13,2015-06-22T18:26,2015-04-21T15:39,2015-03-11T16:25,2015-03-06T16:03,2015-02-10T18:10,2014-11-05T18:00,2014-11-02T14:26,2014-10-28T16:54,2014-10-10T16:20,2014-08-21T19:04,2014-08-20T19:21,2014-06-23T18:13,2014-06-13T15:43,2014-06-03T16:01,2014-03-05T18:07,2014-03-01T17:22,2014-02-27T18:27,2014-02-25T17:59,2013-10-29T15:32,2013-10-26T16:16,2013-10-17T18:39,2013-10-13T16:31,2013-10-09T15:18,2013-08-29T15:23
T: Morrison's
Z: Piano Box Version by Martin Fleischmann
H: Created 2013-02-19 /  Last Modified 2015-06-22
M: 6/8
L: 1/8
R: jig
K: Edor
|: "em"!1!E!2!E!1!E !5!B2B | !1!E !3!(3E!2!E!1!E !4!A!2!F!1!D | !1!E3 !2![B2E]c | "D" !4!dcB !1!A!3!F!1!D |
"em"!1!E!2!E!1!E !5!B2B | !1!E !3!(3E!2!E!1!E "D"!4!A!2!F!1!D | "G"!3!G{A}GG !2!F!1!GA | "D"!5!d!2!A!1!G !3!FE!1!D :|
"em"!2!B!5!e!2!e !3!f!2!ee | !5!a!2!ee !3!f!2!e!1!d | !1!B!2!ee !3!f!2!ee | "D"!3!fag fe!1!d |
"em"!1!B!2!ee !3!f!2!ee | !5!a!2!ee !3!f!2!e!1!d | "bm"!5!gfe !2!d2!1!A | !2!B!1!A!3!G !2!F!3!G!4!A |
"em"!1!B!2!e!2!e !3!f!2!ee | !5!a!2!ee !3!f!2!e!1!d | !1!B!2!ee !3!f!2!ee | "D"!3!f!5!af def |
"G"!4!g!3!g!2!g gfe | !1!d!2!e!3!f !4!g2!1!d | !2!e!1!dc "D"!4!d2!1!A | !2!BA!3!G !2!FE!2!D |


